X: 41961
T: Wallop The Cat From The Table
R: jig
M: 6/8
K: Adorian
|~A3 ABd|ede g3|~G3 GAB|d2e dBG|
~A3 ABd|ede geg|a3 g3|edB BAG|
~A3 ABd|ede g2a|~b3 GAB|d2e dBG|
~A3 ABd|ede geg|a3 g3|edB BAG|
P: B
|:A2a age|ede g2e|g2a g2e|e2d BAG|
A2a age|ede g2e|a_ba g2e|e2d BAG:|

